packages/foundations/assets/icons/functional/images/business & payment/shopping_basket_16.svg

<svg width="16" height="16" viewBox="0 0 16 16" fill="none" xmlns="http://www.w3.org/2000/svg">
<g clip-path="url(#clip0_184_117)">
<path fill-rule="evenodd" clip-rule="evenodd" d="M7.975 2.40002C9.87 2.40002 11.2 3.79602 11.2 5.60002H13.594C14.093 5.60002 14.484 6.05802 14.384 6.56002L13.138 12.949C13.0982 13.1318 12.9976 13.2957 12.8527 13.4139C12.7078 13.5321 12.527 13.5977 12.34 13.6H3.66C3.47592 13.597 3.2985 13.5306 3.15769 13.412C3.01687 13.2934 2.92126 13.1299 2.887 12.949L1.615 6.55902C1.59246 6.44248 1.59595 6.3224 1.62521 6.20736C1.65446 6.09233 1.70877 5.98517 1.78424 5.89355C1.85971 5.80193 1.95449 5.72812 2.0618 5.67738C2.16911 5.62664 2.2863 5.60022 2.405 5.60002H4.8C4.8 3.82102 6.105 2.40002 7.975 2.40002ZM12.614 7.20002H3.386L4.334 12H11.691L12.614 7.20002ZM8 4.00002C7.002 4.00002 6.408 4.64802 6.408 5.60002H9.6C9.6 4.67302 8.973 4.00002 8 4.00002Z" fill="#1A1C1F"/>
</g>
<defs>
<clipPath id="clip0_184_117">
<rect width="16" height="16" fill="white"/>
</clipPath>
</defs>
</svg>

<svg xmlns="http://www.w3.org/2000/svg" width="16" height="16" fill="none"><g clip-path="url(#a)"><path fill="#1A1C1F" fill-rule="evenodd" d="M7.975 2.4C9.87 2.4 11.2 3.796 11.2 5.6h2.394c.499 0 .89.458.79.96l-1.246 6.389a.83.83 0 0 1-.798.651H3.66a.8.8 0 0 1-.773-.651l-1.272-6.39a.806.806 0 0 1 .79-.959H4.8c0-1.779 1.305-3.2 3.175-3.2m4.639 4.8H3.386l.948 4.8h7.357zM8 4c-.998 0-1.592.648-1.592 1.6H9.6C9.6 4.673 8.973 4 8 4" clip-rule="evenodd"/></g><defs><clipPath id="a"><path fill="#fff" d="M0 0h16v16H0z"/></clipPath></defs></svg>
